apps/www/public/images/logos/publicity/archive/1password.svg

<svg width="137" height="27" viewBox="0 0 137 27" fill="none" xmlns="http://www.w3.org/2000/svg">
<path fill-rule="evenodd" clip-rule="evenodd" d="M13.6032 26.1373C20.715 26.1373 26.4803 20.372 26.4803 13.2601C26.4803 6.14831 20.715 0.383026 13.6032 0.383026C6.49135 0.383026 0.726074 6.14831 0.726074 13.2601C0.726074 20.372 6.49135 26.1373 13.6032 26.1373ZM16.0684 6.39769V13.7932C16.0684 13.9913 15.9897 14.1814 15.8495 14.3215L14.961 15.21C14.9027 15.2684 14.9027 15.363 14.961 15.4213L15.8495 16.3099C15.9897 16.45 16.0684 16.64 16.0684 16.8382V20.3206C16.0684 20.7333 15.7339 21.0678 15.3212 21.0678H11.8851C11.4725 21.0678 11.138 20.7333 11.138 20.3206V12.9643C11.138 12.7662 11.2167 12.5761 11.3568 12.436L12.2258 11.567C12.2842 11.5087 12.2842 11.4141 12.2258 11.3557L11.3568 10.4867C11.2167 10.3466 11.138 10.1566 11.138 9.95842V6.39769C11.138 5.98505 11.4725 5.65054 11.8851 5.65054H15.3212C15.7339 5.65054 16.0684 5.98505 16.0684 6.39769Z" fill="#B4B4B4"/>
<path d="M85.1065 9.42945C86.1665 9.42945 87.1465 9.40945 88.1265 9.44945C88.2265 9.44945 88.3864 9.70945 88.4264 9.86944C88.9464 12.3694 89.4665 14.8694 89.9865 17.3694C90.0464 17.6494 90.1064 17.9094 90.2064 18.3294C90.3064 18.0694 90.3664 17.9694 90.3864 17.8494C91.0264 15.2094 91.6664 12.5694 92.2864 9.90944C92.3664 9.52945 92.5064 9.38945 92.9064 9.40945C93.7264 9.42945 94.5264 9.42945 95.3464 9.40945C95.7064 9.38945 95.8264 9.52945 95.9064 9.86944C96.5864 12.5494 97.2864 15.2294 97.9664 17.9094C98.0064 18.0294 98.0464 18.1494 98.1464 18.4094C98.4464 16.9894 98.7064 15.7294 98.9864 14.4494C99.3064 12.9294 99.6264 11.3894 99.9264 9.86944C100.006 9.50945 100.166 9.38945 100.526 9.40945C101.406 9.42945 102.286 9.40945 103.226 9.40945C103.166 9.72945 103.126 9.98944 103.066 10.2294C102.206 13.7494 101.326 17.2694 100.466 20.7894C100.366 21.1894 100.206 21.3094 99.8064 21.3094C98.5664 21.2894 97.3064 21.2894 96.0464 21.2894C95.4264 18.6494 94.8064 16.0294 94.2064 13.4294C94.1664 13.4294 94.1464 13.4094 94.1064 13.4094C93.4864 16.0294 92.8664 18.6494 92.2264 21.2694C90.8264 21.2694 89.4664 21.2694 88.0665 21.2694C87.0465 17.3494 86.0865 13.4294 85.1065 9.42945Z" fill="#B4B4B4"/>
<path d="M133.125 5.00948V10.6694C132.825 10.4294 132.545 10.1694 132.265 9.94945C130.345 8.46946 127.145 8.98945 125.645 11.0894C124.145 13.1894 123.985 15.4894 124.745 17.8894C125.305 19.6894 126.485 20.9894 128.365 21.4694C130.145 21.9294 132.145 21.4294 133.005 19.7694C133.025 19.7294 133.085 19.7094 133.225 19.5894V21.2894H136.385V5.00948H133.125ZM133.005 15.2894C133.025 16.3694 132.825 17.2694 132.145 18.0494C131.305 19.0094 129.205 19.0494 128.425 17.6894C127.565 16.1694 127.545 14.5894 128.405 13.0894C129.285 11.5494 131.525 11.5694 132.465 13.0894C132.905 13.7894 133.045 14.5694 133.005 15.2894Z" fill="#B4B4B4"/>
<path d="M50.049 6.78947C49.089 6.08947 48.009 5.74947 46.829 5.74947C44.749 5.72947 42.669 5.72947 40.589 5.72947C40.469 5.72947 40.369 5.74947 40.229 5.76947V21.2894H43.649V20.7294C43.649 19.3894 43.669 18.0294 43.649 16.6894C43.649 16.3494 43.749 16.2294 44.109 16.2294C45.109 16.2294 46.109 16.2294 47.109 16.1494C50.129 15.9094 51.929 13.9894 52.009 10.9894C52.029 9.26945 51.449 7.82946 50.049 6.78947ZM46.069 13.2094C45.409 13.2094 44.749 13.1894 44.069 13.2094C43.749 13.2094 43.629 13.1094 43.629 12.7694C43.649 12.1494 43.629 11.5494 43.629 10.9294C43.629 10.3294 43.649 9.72944 43.629 9.12945C43.629 8.82945 43.709 8.66945 44.049 8.68945C44.889 8.72945 45.749 8.70945 46.589 8.74945C47.589 8.80945 48.289 9.46945 48.409 10.4694C48.649 12.1894 47.789 13.1894 46.069 13.2094Z" fill="#B4B4B4"/>
<path d="M63.3149 21.2894C63.2549 18.4694 63.2549 15.6894 63.0949 12.9294C63.0149 11.6294 62.2549 10.5694 61.095 9.86945C59.275 8.76945 55.975 8.78946 54.155 10.5694C53.515 11.2094 53.015 11.9294 52.795 12.8494C53.635 13.0494 54.435 13.2094 55.195 13.4494C55.635 13.5694 55.935 13.5694 56.115 13.0494C56.195 12.8094 56.415 12.5694 56.615 12.3894C57.195 11.8694 57.875 11.7494 58.615 11.9694C59.295 12.1894 59.655 12.7094 59.795 13.3894C59.995 14.3094 59.815 14.5294 58.875 14.5294C58.035 14.5294 57.175 14.5094 56.335 14.5294C55.815 14.5494 55.295 14.5894 54.795 14.7094C52.335 15.2894 51.395 18.3694 53.095 20.2494C54.775 22.0894 58.055 22.0894 59.735 20.2094C59.835 20.1094 59.855 19.9494 59.915 19.8294C59.975 19.8894 60.055 19.9294 60.115 19.9894V21.3094H63.3149V21.2894ZM57.815 19.0094C57.475 19.0494 57.115 19.0494 56.775 19.0094C56.095 18.9094 55.675 18.4094 55.695 17.7894C55.715 17.1494 56.115 16.6694 56.835 16.6494C57.835 16.6094 58.815 16.6494 59.835 16.6494C60.035 17.7294 59.135 18.8294 57.815 19.0094Z" fill="#B4B4B4"/>
<path d="M109.298 9.12945C105.878 9.06945 103.238 11.6894 103.178 15.1894C103.118 18.7094 105.638 21.4694 108.918 21.6094C112.398 21.7494 115.338 19.2894 115.358 15.4094C115.378 11.7494 112.738 9.12945 109.298 9.12945ZM111.298 17.5294C110.178 19.1894 107.918 19.0494 107.078 17.2294C106.818 16.6694 106.738 16.0094 106.558 15.3694C106.738 14.7294 106.818 14.0694 107.078 13.4894C107.438 12.6494 108.138 12.1294 109.058 12.0294C110.018 11.9494 110.758 12.3694 111.298 13.1694C112.078 14.3494 112.078 16.3694 111.298 17.5294Z" fill="#B4B4B4"/>
<path d="M74.1144 12.6294C73.1744 12.8094 72.2344 12.9694 71.3145 13.1294C71.2345 13.1494 71.0745 12.9494 71.0145 12.8294C70.4545 11.7094 69.3145 11.2294 68.1145 11.6494C67.6745 11.8094 67.3545 12.0694 67.3145 12.5694C67.2545 13.0894 67.5545 13.4094 67.9945 13.5494C69.0745 13.8894 70.1745 14.1294 71.2345 14.4894C71.9345 14.7294 72.6744 15.0094 73.2344 15.4494C74.4544 16.4294 74.5944 18.2494 73.7144 19.5894C72.9944 20.6694 71.9745 21.2494 70.7145 21.4694C68.7945 21.8094 66.9345 21.6694 65.2745 20.5294C64.5145 20.0094 64.0745 19.2694 63.8945 18.3094C64.7945 18.0894 65.6545 17.8694 66.5145 17.6694C66.6145 17.6494 66.8345 17.7694 66.8745 17.8894C67.5545 19.2494 69.2745 19.3294 70.2345 19.0094C70.6745 18.8694 71.0145 18.5694 71.0145 18.0294C71.0345 17.4894 70.6545 17.2894 70.2545 17.1694C69.2745 16.8894 68.2745 16.6294 67.2945 16.3494C66.9345 16.2494 66.5745 16.1094 66.2145 15.9694C64.9945 15.4694 64.2145 14.6294 64.1345 13.2494C64.0545 11.9094 64.4945 10.8094 65.6345 10.0294C66.6345 9.32945 67.7745 9.14945 68.9545 9.12945C70.4145 9.12945 71.8145 9.36945 72.9144 10.4294C73.5144 11.0294 73.9144 11.7294 74.1144 12.6294Z" fill="#B4B4B4"/>
<path d="M74.8147 18.2894C75.6947 18.0694 76.5346 17.8494 77.3746 17.6694C77.4946 17.6494 77.7346 17.7494 77.7946 17.8494C78.4346 19.1094 79.9546 19.3094 81.0546 19.0094C81.6146 18.8694 81.9346 18.4694 81.9546 18.0094C81.9746 17.4494 81.5746 17.2494 81.1546 17.1294C80.1746 16.8294 79.1746 16.5894 78.1746 16.3294C77.8146 16.2294 77.4546 16.0894 77.0946 15.9494C75.8946 15.4494 75.1347 14.6094 75.0347 13.2694C74.9547 11.9494 75.3746 10.8494 76.4746 10.0694C77.4746 9.34945 78.6346 9.14946 79.8346 9.14946C81.2946 9.14946 82.6746 9.38945 83.7946 10.4494C84.3946 11.0094 84.8146 11.7694 85.0146 12.6494C84.2746 12.7894 83.5146 12.8894 82.7946 13.0694C82.2946 13.1894 82.0346 13.1094 81.7746 12.5894C81.2546 11.5694 79.8546 11.2094 78.8146 11.7294C78.4546 11.9094 78.2346 12.2094 78.2346 12.6294C78.2346 13.0494 78.4546 13.3494 78.8146 13.4694C79.6546 13.7494 80.5346 13.9694 81.3746 14.2494C82.1146 14.4894 82.8946 14.6694 83.5746 15.0294C85.2546 15.9294 85.6946 17.9694 84.6346 19.5694C83.9346 20.6494 82.8946 21.2294 81.6546 21.4494C79.7346 21.7894 77.8746 21.6494 76.2146 20.5094C75.4547 20.0094 75.0147 19.2694 74.8147 18.2894Z" fill="#B4B4B4"/>
<path d="M33.5091 21.2694C33.5091 17.3894 33.5091 13.5494 33.5091 9.64945C32.7491 9.64945 32.0091 9.64945 31.2291 9.64945C31.2291 8.68945 31.2291 7.80946 31.2291 6.90946C31.7091 6.82946 32.2091 6.76947 32.6891 6.64947C33.2891 6.50947 33.7891 6.20947 34.1691 5.70947C34.2491 5.60947 34.3691 5.48947 34.4691 5.48947C35.2891 5.46947 36.1291 5.48947 36.9891 5.48947C36.9891 10.7894 36.9891 16.0094 36.9891 21.2694C35.8291 21.2694 34.6891 21.2694 33.5091 21.2694Z" fill="#B4B4B4"/>
<path d="M119.681 9.46945C119.681 10.1294 119.681 10.7494 119.681 11.3694C119.721 11.3694 119.741 11.3894 119.781 11.3894C119.921 11.1694 120.041 10.9294 120.181 10.7094C120.941 9.48945 122.441 8.86945 123.801 9.18945C124.161 9.26945 124.381 9.38945 124.261 9.86944C124.061 10.6294 123.921 11.3894 123.861 12.1694C123.821 12.6694 123.581 12.6294 123.221 12.6294C122.621 12.6094 122.001 12.6294 121.401 12.7294C120.641 12.8494 120.201 13.3694 120.081 14.1094C120.001 14.5694 119.981 15.0294 119.981 15.4894C119.961 17.2294 119.981 18.9894 119.981 20.7294C119.981 20.9094 119.981 21.0894 119.981 21.3094C118.841 21.3094 117.741 21.3094 116.601 21.3094C116.601 17.3694 116.601 13.4694 116.601 9.48945C117.581 9.46945 118.581 9.46945 119.681 9.46945Z" fill="#B4B4B4"/>
</svg>

<svg xmlns="http://www.w3.org/2000/svg" width="137" height="27" fill="none" viewBox="0 0 137 27"><path fill="#b4b4b4" fill-rule="evenodd" d="M13.603 26.137c7.112 0 12.877-5.765 12.877-12.877S20.715.383 13.603.383.726 6.148.726 13.26s5.765 12.877 12.877 12.877m2.465-19.74v7.396a.75.75 0 0 1-.219.529l-.888.888a.15.15 0 0 0 0 .211l.889.889c.14.14.218.33.218.528v3.483a.747.747 0 0 1-.747.747h-3.436a.747.747 0 0 1-.747-.747v-7.357c0-.198.079-.388.219-.528l.869-.869a.15.15 0 0 0 0-.211l-.87-.87a.75.75 0 0 1-.218-.528v-3.56c0-.413.335-.747.747-.747h3.436c.413 0 .747.334.747.747" clip-rule="evenodd"/><path fill="#b4b4b4" d="M85.107 9.43c1.06 0 2.04-.02 3.02.02.1 0 .26.26.3.42l1.56 7.5c.06.28.12.54.22.96.1-.26.16-.36.18-.48.64-2.64 1.28-5.28 1.9-7.94.08-.38.22-.52.62-.5.82.02 1.62.02 2.44 0 .36-.02.48.12.56.46.68 2.68 1.38 5.36 2.06 8.04.04.12.08.24.18.5.3-1.42.56-2.68.84-3.96.32-1.52.64-3.06.94-4.58.079-.36.239-.48.599-.46.88.02 1.76 0 2.7 0-.06.32-.1.58-.16.82-.86 3.52-1.74 7.04-2.6 10.56-.1.4-.26.52-.66.52-1.24-.02-2.5-.02-3.76-.02-.62-2.64-1.24-5.26-1.84-7.86-.04 0-.06-.02-.1-.02-.62 2.62-1.24 5.24-1.88 7.86h-4.16c-1.02-3.92-1.98-7.84-2.96-11.84M133.125 5.01v5.66c-.3-.24-.58-.5-.86-.72-1.92-1.48-5.12-.96-6.62 1.14s-1.66 4.4-.9 6.8c.56 1.8 1.74 3.1 3.62 3.58 1.78.46 3.78-.04 4.64-1.7.02-.04.08-.06.22-.18v1.7h3.16V5.01zm-.12 10.28c.02 1.08-.18 1.98-.86 2.76-.84.96-2.94 1-3.72-.36-.86-1.52-.88-3.1-.02-4.6.88-1.54 3.12-1.52 4.06 0 .44.7.58 1.48.54 2.2M50.049 6.79a5.34 5.34 0 0 0-3.22-1.04c-2.08-.02-4.16-.02-6.24-.02-.12 0-.22.02-.36.04v15.52h3.42v-.56c0-1.34.02-2.7 0-4.04 0-.34.1-.46.46-.46 1 0 2 0 3-.08 3.02-.24 4.82-2.16 4.9-5.16.02-1.72-.56-3.16-1.96-4.2m-3.98 6.42c-.66 0-1.32-.02-2 0-.32 0-.44-.1-.44-.44.02-.62 0-1.22 0-1.84 0-.6.02-1.2 0-1.8 0-.3.08-.46.42-.44.84.04 1.7.02 2.54.06 1 .06 1.7.72 1.82 1.72.24 1.72-.62 2.72-2.34 2.74M63.315 21.29c-.06-2.82-.06-5.6-.22-8.36-.08-1.3-.84-2.36-2-3.06-1.82-1.1-5.12-1.08-6.94.7-.64.64-1.14 1.36-1.36 2.28.84.2 1.64.36 2.4.6.44.12.74.12.92-.4.08-.24.3-.48.5-.66.58-.52 1.26-.64 2-.42.68.22 1.04.74 1.18 1.42.2.92.02 1.14-.92 1.14-.84 0-1.7-.02-2.54 0-.52.02-1.04.06-1.54.18-2.46.58-3.4 3.66-1.7 5.54 1.68 1.84 4.96 1.84 6.64-.04.1-.1.12-.26.18-.38.06.06.14.1.2.16v1.32h3.2zm-5.5-2.28c-.34.04-.7.04-1.04 0-.68-.1-1.1-.6-1.08-1.22.02-.64.42-1.12 1.14-1.14 1-.04 1.98 0 3 0 .2 1.08-.7 2.18-2.02 2.36M109.298 9.13c-3.42-.06-6.06 2.56-6.12 6.06-.06 3.52 2.46 6.28 5.74 6.42 3.48.14 6.42-2.32 6.44-6.2.02-3.66-2.62-6.28-6.06-6.28m2 8.4c-1.12 1.66-3.38 1.52-4.22-.3-.26-.56-.34-1.22-.52-1.86.18-.64.26-1.3.52-1.88.36-.84 1.06-1.36 1.98-1.46.96-.08 1.7.34 2.24 1.14.78 1.18.78 3.2 0 4.36M74.114 12.63c-.94.18-1.88.34-2.8.5-.08.02-.24-.18-.3-.3-.56-1.12-1.7-1.6-2.9-1.18-.44.16-.76.42-.8.92-.06.52.24.84.68.98 1.08.34 2.18.58 3.24.94.7.24 1.44.52 2 .96 1.22.98 1.36 2.8.48 4.14-.72 1.08-1.74 1.66-3 1.88-1.92.34-3.78.2-5.44-.94-.76-.52-1.2-1.26-1.38-2.22.9-.22 1.76-.44 2.62-.64.1-.02.32.1.36.22.68 1.36 2.4 1.44 3.36 1.12.44-.14.78-.44.78-.98.02-.54-.36-.74-.76-.86-.98-.28-1.98-.54-2.96-.82-.36-.1-.72-.24-1.08-.38-1.22-.5-2-1.34-2.08-2.72-.08-1.34.36-2.44 1.5-3.22 1-.7 2.14-.88 3.32-.9 1.46 0 2.86.24 3.96 1.3.6.6 1 1.3 1.2 2.2M74.815 18.29c.88-.22 1.72-.44 2.56-.62.12-.02.36.08.42.18.64 1.26 2.16 1.46 3.26 1.16.56-.14.88-.54.9-1 .02-.56-.38-.76-.8-.88-.98-.3-1.98-.54-2.98-.8-.36-.1-.72-.24-1.08-.38-1.2-.5-1.96-1.34-2.06-2.68-.08-1.32.34-2.42 1.44-3.2 1-.72 2.16-.92 3.36-.92 1.46 0 2.84.24 3.96 1.3.6.56 1.02 1.32 1.22 2.2-.74.14-1.5.24-2.22.42-.5.12-.76.04-1.02-.48-.52-1.02-1.92-1.38-2.96-.86-.36.18-.58.48-.58.9s.22.72.58.84c.84.28 1.72.5 2.56.78.74.24 1.52.42 2.2.78 1.68.9 2.12 2.94 1.06 4.54-.7 1.08-1.74 1.66-2.98 1.88-1.92.34-3.78.2-5.44-.94-.76-.5-1.2-1.24-1.4-2.22M33.51 21.27V9.65h-2.28V6.91c.48-.08.98-.14 1.46-.26.6-.14 1.1-.44 1.48-.94.08-.1.2-.22.3-.22.82-.02 1.66 0 2.52 0v15.78zM119.681 9.47v1.9c.04 0 .06.02.1.02.14-.22.26-.46.4-.68.76-1.22 2.26-1.84 3.62-1.52.36.08.58.2.46.68-.2.76-.34 1.52-.4 2.3-.04.5-.28.46-.64.46-.6-.02-1.22 0-1.82.1-.76.12-1.2.64-1.32 1.38-.08.46-.1.92-.1 1.38-.02 1.74 0 3.5 0 5.24v.58h-3.38V9.49c.98-.02 1.98-.02 3.08-.02"/></svg>
